svgs/thin/skull-crossbones.svg

<svg xmlns="http://www.w3.org/2000/svg" viewBox="0 0 448 512"><!--! Font Awesome Pro 6.4.2 by @fontawesome - https://fontawesome.com License - https://fontawesome.com/license (Commercial License) Copyright 2023 Fonticons, Inc. --><path d="M295.8 220.7C330.3 200.2 352 165.9 352 128c0-60.1-55.5-112-128-112S96 67.9 96 128c0 37.9 21.7 72.2 56.2 92.7c4.8 2.9 7.8 8.1 7.8 13.8V256c0 8.8 7.2 16 16 16h96c8.8 0 16-7.2 16-16V234.4c0-5.6 3-10.9 7.8-13.8zM304 256c0 17.7-14.3 32-32 32H176c-17.7 0-32-14.3-32-32V234.4c-38.6-23-64-62.1-64-106.4C80 57.3 144.5 0 224 0s144 57.3 144 128c0 44.4-25.4 83.5-64 106.4V256zM176 112a32 32 0 1 1 0 64 32 32 0 1 1 0-64zm96 0a32 32 0 1 1 0 64 32 32 0 1 1 0-64zm-80 32a16 16 0 1 0 -32 0 16 16 0 1 0 32 0zm80 16a16 16 0 1 0 0-32 16 16 0 1 0 0 32zM1 260.1c2.1-3.9 7-5.3 10.9-3.1L224 374.8 436.1 257c3.9-2.1 8.7-.8 10.9 3.1s.8 8.7-3.1 10.9L240.5 384 443.9 497c3.9 2.1 5.3 7 3.1 10.9s-7 5.3-10.9 3.1L224 393.2 11.9 511c-3.9 2.1-8.7 .8-10.9-3.1s-.8-8.7 3.1-10.9L207.5 384 4.1 271c-3.9-2.1-5.3-7-3.1-10.9z"/></svg>

<svg xmlns="http://www.w3.org/2000/svg" viewBox="0 0 448 512"><!--! Font Awesome Pro 6.1.1 by @fontawesome - https://fontawesome.com License - https://fontawesome.com/license (Commercial License) Copyright 2022 Fonticons, Inc. --><path d="M144 144C144 126.3 158.3 112 176 112C193.7 112 208 126.3 208 144C208 161.7 193.7 176 176 176C158.3 176 144 161.7 144 144zM176 128C167.2 128 160 135.2 160 144C160 152.8 167.2 160 176 160C184.8 160 192 152.8 192 144C192 135.2 184.8 128 176 128zM240 144C240 126.3 254.3 112 272 112C289.7 112 304 126.3 304 144C304 161.7 289.7 176 272 176C254.3 176 240 161.7 240 144zM272 160C280.8 160 288 152.8 288 144C288 135.2 280.8 128 272 128C263.2 128 256 135.2 256 144C256 152.8 263.2 160 272 160zM272 288H176C158.3 288 144 273.7 144 256V234.4C105.4 211.5 80 172.4 80 128C80 57.31 144.5 0 224 0C303.5 0 368 57.31 368 128C368 172.4 342.6 211.5 304 234.4V256C304 273.7 289.7 288 272 288zM352 128C352 67.86 296.5 16 224 16C151.5 16 96 67.86 96 128C96 165.9 117.7 200.2 152.2 220.7C157 223.6 160 228.8 160 234.4V256C160 264.8 167.2 272 176 272H272C280.8 272 288 264.8 288 256V234.4C288 228.8 290.1 223.6 295.8 220.7C330.3 200.2 352 165.9 352 128zM1.008 260.1C3.154 256.3 8.024 254.9 11.89 257L224 374.8L436.1 257C439.1 254.9 444.8 256.3 446.1 260.1C449.1 263.1 447.8 268.8 443.9 270.1L240.5 384L443.9 497C447.8 499.2 449.1 504 446.1 507.9C444.8 511.7 439.1 513.1 436.1 510.1L224 393.2L11.89 510.1C8.024 513.1 3.154 511.7 1.008 507.9C-1.137 504 .2541 499.2 4.116 497L207.5 384L4.116 270.1C.2541 268.8-1.137 263.1 1.008 260.1V260.1z"/></svg>
